includes/assets/images/paymentmethods/amazon-pay.svg

<?xml version="1.0" encoding="UTF-8"?>
<svg width="150px" height="29px" viewBox="0 0 150 29" version="1.1" xmlns="http://www.w3.org/2000/svg" xmlns:xlink="http://www.w3.org/1999/xlink">
    <!-- Generator: Sketch 55.1 (78136) - https://sketchapp.com -->
    <title>amazonpay-logo-rgb_clr</title>
    <desc>Created with Sketch.</desc>
    <g id="Symbols" stroke="none" stroke-width="1" fill="none" fill-rule="evenodd">
        <g id="amazonpay-logo-rgb_clr">
            <path d="M11.6556522,16.6330435 C11.4616651,16.8012929 11.1828738,16.8294853 10.9591304,16.7034783 C9.98086957,15.8895652 9.80347826,15.513913 9.27130435,14.7391304 C7.65130435,16.3878261 6.50608696,16.8808696 4.41130435,16.8808696 C1.93043478,16.8808696 1.0658141e-14,15.3495652 1.0658141e-14,12.2869565 C1.0658141e-14,9.89478261 1.30434783,8.26956522 3.13043478,7.47130435 C4.72956522,6.76956522 6.9626087,6.64173913 8.67130435,6.44869565 L8.67130435,6.06782609 C8.67130435,5.36608696 8.72608696,4.53652174 8.31391304,3.92869565 C7.95391304,3.38608696 7.27043478,3.16434783 6.66,3.16434783 C5.53565217,3.16434783 4.53391304,3.74086957 4.28869565,4.93304348 C4.25761785,5.21114334 4.04362435,5.43369658 3.76695652,5.47565217 L0.933913043,5.16521739 C0.792544863,5.14497189 0.665654764,5.06766327 0.582834478,4.95132048 C0.500014192,4.8349777 0.468503948,4.68977155 0.495652174,4.54956522 C1.15043478,1.08521739 4.28086957,0.0391304348 7.08521739,0.0391304348 C8.52,0.0391304348 10.3930435,0.42 11.52,1.50521739 C12.9521739,2.84608696 12.8243478,4.63565217 12.8243478,6.57913043 L12.8243478,11.1678261 C12.8243478,12.5504348 13.3982609,13.1556522 13.9382609,13.8991304 C14.126087,14.16 14.1678261,14.486087 13.9382609,14.6817391 C13.3356522,15.1852174 12.266087,16.113913 11.6791304,16.6382609 L11.6791304,16.6382609 L11.6556522,16.6330435 Z M8.68434783,9.44869565 C8.68434783,10.5965217 8.71043478,11.553913 8.13391304,12.5791304 C7.66434783,13.4086957 6.92086957,13.92 6.09130435,13.92 C4.96173913,13.92 4.30173913,13.0591304 4.30173913,11.7808696 C4.30173913,9.27130435 6.55304348,8.81478261 8.68434783,8.81478261 L8.68434783,9.45391304 L8.68434783,9.44869565 Z" id="Shape" fill="#232F3E"></path>
            <path d="M19.7269565,16.5184164 L16.7817391,16.5184164 C16.5085243,16.5040843 16.2867326,16.2922732 16.26,16.02 L16.26,0.889565217 C16.2699083,0.586364533 16.5201305,0.346568201 16.8234783,0.349565217 L19.5704348,0.349565217 C19.8519006,0.365093458 20.0766457,0.589838516 20.0921739,0.871304348 L20.0921739,2.84608696 L20.1469565,2.84608696 C20.8617391,0.933913043 22.2104348,0.0443478261 24.026087,0.0443478261 C25.8417391,0.0443478261 27.0234783,0.933913043 27.8504348,2.84608696 C28.4025095,1.3745298 29.7052483,0.315061052 31.2584358,0.0744872936 C32.8116232,-0.166086465 34.373832,0.449629517 35.3452174,1.68521739 C36.2817391,2.95826087 36.0886957,4.81565217 36.0886957,6.42782609 L36.0886957,15.9730435 C36.0859602,16.1208818 36.0244126,16.2615328 35.9176772,16.3638618 C35.8109418,16.4661907 35.6678223,16.5217572 35.52,16.5184164 L32.5747826,16.5184164 C32.2850457,16.5031596 32.0567753,16.2657583 32.0530435,15.9756522 L32.0530435,7.95652174 C32.0530435,7.32 32.1078261,5.72869565 31.9695652,5.12347826 C31.7504348,4.10608696 31.0904348,3.81913043 30.2373913,3.81913043 C29.4554986,3.84301748 28.7629847,4.33034207 28.4765217,5.05826087 C28.173913,5.82521739 28.2,7.09565217 28.2,7.95652174 L28.2,15.9730435 C28.1972584,16.1204201 28.1360705,16.2606682 28.0299029,16.3629219 C27.9237353,16.4651755 27.7812886,16.5210545 27.633913,16.5184164 L24.6808696,16.5184164 C24.3917052,16.5019101 24.1641332,16.2652353 24.1591304,15.9756522 L24.1591304,7.95652174 C24.1591304,6.26869565 24.42,3.7826087 22.3330435,3.7826087 C20.246087,3.7826087 20.2982609,6.20086957 20.2982609,7.95652174 L20.2982609,15.9730435 C20.2955254,16.1208818 20.2339779,16.2615328 20.1272424,16.3638618 C20.020507,16.4661907 19.8773875,16.5217572 19.7295652,16.5184164" id="Path" fill="#232F3E"></path>
            <path d="M52.5626087,13.8886957 C52.0226087,13.1452174 51.4486957,12.54 51.4486957,11.16 L51.4486957,6.56869565 C51.4486957,4.6226087 51.5869565,2.83565217 50.1443478,1.49478261 C49.0147826,0.409565217 47.1417391,0.0286956522 45.7095652,0.0286956522 C42.9052174,0.0286956522 39.7747826,1.07217391 39.1173913,4.53913043 C39.089467,4.68012136 39.1209425,4.82638703 39.2043902,4.94341134 C39.2878379,5.06043565 39.4158656,5.13785192 39.5582609,5.1573913 L42.4147826,5.46521739 C42.6910126,5.42241779 42.9045834,5.20030413 42.9365217,4.9226087 C43.1843478,3.73043478 44.1808696,3.15391304 45.3052174,3.15391304 C45.9130435,3.15391304 46.6095652,3.37826087 46.9591304,3.92086957 C47.373913,4.52608696 47.3191304,5.35565217 47.3191304,6.0573913 L47.3191304,6.43043478 C45.6104348,6.62086957 43.3747826,6.74869565 41.7782609,7.45043478 C39.9313043,8.24869565 38.6347826,9.87391304 38.6347826,12.2686957 C38.6347826,15.3286957 40.5652174,16.86 43.046087,16.86 C45.1330435,16.86 46.286087,16.3669565 47.9034783,14.7182609 C48.4408696,15.5008696 48.6156522,15.8686957 49.593913,16.6826087 C49.817452,16.8077569 50.0952399,16.7807064 50.2904348,16.6147826 L50.2904348,16.6147826 C50.8773913,16.0930435 51.9469565,15.1617391 52.5495652,14.6582609 C52.8026087,14.4782609 52.7608696,14.16 52.5626087,13.8886957 Z M46.7713043,12.566087 C46.3043478,13.3930435 45.5582609,13.9043478 44.7313043,13.9043478 C43.6017391,13.9043478 42.9417391,13.0434783 42.9417391,11.7678261 C42.9417391,9.25565217 45.1930435,8.80173913 47.3243478,8.80173913 L47.3243478,9.43826087 C47.3243478,10.5886957 47.3452174,11.5434783 46.7713043,12.566087 Z" id="Shape" fill="#232F3E"></path>
            <path d="M55.0565217,3 L55.0565217,0.837391304 C55.0496436,0.689869188 55.1056071,0.546342717 55.2105304,0.442413959 C55.3154537,0.338485201 55.4595066,0.283891124 55.6069565,0.292173913 L65.2930435,0.292173913 C65.4403075,0.287183393 65.5832151,0.342587596 65.6886305,0.445539987 C65.7940459,0.548492377 65.8528125,0.690050477 65.8513043,0.837391304 L65.8513043,2.69217391 C65.8513043,3.0026087 65.5904348,3.40956522 65.1234783,4.05130435 L60.1043478,11.2147826 C61.9669565,11.1704348 63.9365217,11.4495652 65.6295652,12.4017391 C65.9422411,12.5684641 66.141419,12.8901365 66.1513043,13.2443478 L66.1513043,15.5608696 C66.1513043,15.8791304 65.8043478,16.2469565 65.4365217,16.0565217 C62.2235183,14.4050812 58.4096982,14.4118864 55.2026087,16.0747826 C54.866087,16.2547826 54.513913,15.8921739 54.513913,15.573913 L54.513913,13.3695652 C54.4831351,12.8499471 54.6085101,12.3330025 54.873913,11.8852174 L60.6886957,3.5373913 L55.6173913,3.5373913 C55.4696835,3.54311211 55.3260878,3.48803218 55.2200959,3.38499812 C55.1141039,3.28196406 55.0549828,3.13998442 55.0565217,2.99217391" id="Path" fill="#232F3E"></path>
            <path d="M74.2147826,3.10956522 C72.0417391,3.10956522 71.9034655,6.06782609 71.9034655,7.91478261 C71.9034655,9.76173913 71.8773913,13.706087 74.186087,13.706087 C76.4947826,13.706087 76.5808696,10.5234783 76.5808696,8.5826087 C76.5808696,7.30956522 76.526087,5.78086957 76.14,4.57304348 C75.8086957,3.52956522 75.1486957,3.10956522 74.2147826,3.10956522 Z M74.186087,0.0208695652 C78.5608696,0.0208695652 80.9269565,3.7773913 80.9269565,8.55130435 C80.9269565,13.166087 78.3182609,16.826087 74.186087,16.826087 C69.8947826,16.826087 67.5573913,13.0695652 67.5573913,8.39217391 C67.5573913,3.71478261 69.9234783,0.0208695652 74.186087,0.0208695652 Z" id="Shape" fill="#232F3E"></path>
            <path d="M86.6295652,16.4870834 L83.6921739,16.4870834 C83.402437,16.4718553 83.1741666,16.234454 83.1704348,15.9443478 L83.1704348,0.813913043 C83.2015492,0.526636869 83.4476529,0.311154395 83.7365217,0.31826087 L86.4704348,0.31826087 C86.7194179,0.326250262 86.9326557,0.498972842 86.9921739,0.740869565 L86.9921739,3.05478261 L87.0495652,3.05478261 C87.873913,0.986086957 89.0295652,3.55271368e-15 91.0643478,3.55271368e-15 C92.3843478,3.55271368e-15 93.6730435,0.477391304 94.5052174,1.78173913 C95.2747826,2.99217391 95.2747826,5.02956522 95.2747826,6.49304348 L95.2747826,16.0121739 C95.2317049,16.2899194 94.9896993,16.4928919 94.7086957,16.4870834 L91.7452174,16.4870834 C91.4794189,16.4755781 91.2597998,16.2757248 91.2234783,16.0121739 L91.2234783,7.7973913 C91.2234783,6.14347826 91.4165217,3.7226087 89.3791304,3.7226087 C88.6226106,3.75758969 87.9559781,4.23055219 87.6730435,4.93304348 C87.2608696,5.85652174 87.206087,6.78 87.206087,7.8026087 L87.206087,15.9443478 C87.1947613,16.25146 86.9394382,16.4928564 86.6321739,16.4870834" id="Path" fill="#232F3E"></path>
            <path d="M110.608696,2.61652174 C109.110931,2.62835068 107.65772,3.12740547 106.468696,4.03826087 L106.468696,12.6469565 C107.786957,13.6382609 109.146087,14.1330435 110.546087,14.1313089 C113.387826,14.1313089 114.808696,12.2182609 114.808696,8.39217391 C114.808696,4.56608696 113.408696,2.64 110.608696,2.61391304 L110.608696,2.61652174 Z M106.252174,2.21478261 C106.992528,1.5619265 107.838496,1.03970223 108.753913,0.670434783 C109.618719,0.325729424 110.541201,0.148669617 111.472174,0.148695652 C112.397519,0.131471962 113.315451,0.316661005 114.161739,0.691304348 C114.959228,1.05693731 115.657767,1.60789794 116.19913,2.29826087 C116.788597,3.06307147 117.22444,3.93475793 117.482609,4.86521739 C117.795467,5.96798905 117.946607,7.11033184 117.931304,8.25652174 C117.945534,9.42710286 117.783726,10.5931735 117.451304,11.7156522 C117.173029,12.668145 116.7172,13.5594465 116.107826,14.3426087 C115.54193,15.0546471 114.823391,15.6305484 114.005217,16.0278261 C113.14549,16.4269018 112.205891,16.6241017 111.258261,16.6043478 C109.487194,16.6336485 107.772884,15.9796883 106.471304,14.7782609 L106.471304,22.02 C106.496181,22.1903942 106.439097,22.3625253 106.317333,22.4842894 C106.195569,22.6060536 106.023438,22.6631371 105.853043,22.6382609 L104.026957,22.6382609 C103.856562,22.6631371 103.684431,22.6060536 103.562667,22.4842894 C103.440903,22.3625253 103.383819,22.1903942 103.408696,22.02 L103.408696,1.22608696 C103.38496,1.0559368 103.442417,0.884506158 103.563896,0.763026804 C103.685376,0.641547451 103.856806,0.584090209 104.026957,0.607826087 L105.386087,0.607826087 C105.563439,0.591236151 105.739858,0.647909324 105.874368,0.764681851 C106.008879,0.881454378 106.089773,1.04816353 106.098261,1.22608696 L106.252174,2.21478261 L106.252174,2.21478261 Z" id="Shape" fill="#232F3E"></path>
            <path d="M125.637391,14.3660976 C126.365518,14.3568549 127.086569,14.2218233 127.768696,13.9669565 C128.53427,13.6853816 129.252836,13.2895983 129.9,12.7930435 L129.9,9.63913043 C129.364651,9.51324411 128.823027,9.415717 128.277391,9.34695652 C127.729868,9.27513566 127.178299,9.23853866 126.626087,9.2373913 C124.295652,9.2373913 123.131304,10.133913 123.133042,11.9269565 C123.133042,12.7095652 123.349565,13.3121739 123.782609,13.7347826 C124.215652,14.1573913 124.833913,14.3678261 125.637391,14.3660976 Z M122.021739,3.3 L121.789565,3.37826087 C121.705747,3.40801683 121.617629,3.42387795 121.528696,3.42521739 C121.267826,3.42521739 121.126957,3.24 121.126957,2.86695652 L121.126957,2.04 C121.107159,1.83110952 121.150797,1.6211026 121.252174,1.4373913 C121.385552,1.28788161 121.555432,1.17552697 121.745217,1.11130435 C122.529772,0.792473695 123.34809,0.564044848 124.184348,0.430434783 C125.142443,0.25695677 126.114152,0.169565217 127.087826,0.169565217 C129.044348,0.169565217 130.486087,0.570434783 131.413043,1.37217391 C132.34,2.17391304 132.804348,3.42 132.806087,5.11043478 L132.806087,15.6652174 C132.829823,15.8353675 132.772366,16.0067982 132.650886,16.1282775 C132.529407,16.2497569 132.357976,16.3072141 132.187826,16.2834783 L130.857391,16.2834783 C130.688613,16.300115 130.52041,16.2466888 130.392167,16.1357088 C130.263923,16.0247288 130.1869,15.8659402 130.17913,15.6965217 L130.022609,14.6765217 C129.294951,15.3069696 128.464686,15.8081282 127.567826,16.1582609 C126.717377,16.499165 125.810136,16.6761875 124.893913,16.68 C123.412174,16.68 122.238261,16.2626087 121.372174,15.4278261 C120.506087,14.5930435 120.071304,13.4756522 120.067826,12.0756522 C120.067826,10.5730435 120.603478,9.37304348 121.674783,8.47565217 C122.746087,7.57826087 124.187826,7.13043478 126,7.13217391 C127.313398,7.15237033 128.619824,7.32749446 129.892174,7.65391304 L129.892174,5.62434783 C129.892174,4.51130435 129.645217,3.72869565 129.151304,3.27652174 C128.657391,2.82434783 127.792174,2.5973913 126.555652,2.59565217 C125.018258,2.61017649 123.491082,2.84742469 122.021739,3.3 Z" id="Shape" fill="#232F3E"></path>
            <path d="M142.86,19.02 C142.301739,20.4408696 141.657391,21.4608696 140.926957,22.08 C140.196522,22.6991304 139.24,23.0078261 138.057391,23.006087 C137.463337,23.014004 136.870962,22.9411638 136.296522,22.7895652 C136.103443,22.7483296 135.929282,22.6447491 135.80087,22.4947826 C135.683682,22.3060926 135.629762,22.0849309 135.646957,21.8634783 L135.646957,21.06 C135.646957,20.6686957 135.80087,20.4730435 136.111304,20.4730435 C136.26748,20.4801613 136.422796,20.5002302 136.575652,20.5330435 C136.850399,20.5805104 137.12907,20.6014762 137.407826,20.5956522 C138.063649,20.6370241 138.712287,20.4396528 139.233913,20.04 C139.666957,19.6695652 140.058261,18.9895652 140.407826,18 L140.994783,16.4347826 L135.041739,1.71913043 C134.929813,1.48483805 134.857528,1.23360193 134.827826,0.975652174 C134.827826,0.730434783 134.971304,0.605217391 135.258261,0.605217391 L137.113043,0.605217391 C137.350617,0.582433116 137.58924,0.636374668 137.793913,0.759130435 C137.968396,0.953976948 138.094422,1.18725885 138.161739,1.44 L142.489565,13.4269565 L146.663478,1.44 C146.730795,1.18725885 146.856821,0.953976948 147.031304,0.759130435 C147.235978,0.636374668 147.474601,0.582433116 147.712174,0.605217391 L149.441739,0.605217391 C149.731304,0.605217391 149.874783,0.730434783 149.874783,0.975652174 C149.843695,1.23363975 149.770553,1.48479183 149.658261,1.71913043 L142.86,19.02" id="Path" fill="#232F3E"></path>
            <path d="M59.0530435,22.4504348 C53.52,26.5330435 45.4878261,28.7113043 38.5904348,28.7113043 C29.3628977,28.7583335 20.4503492,25.3579822 13.5991304,19.1765217 C13.0773913,18.7095652 13.5417391,18.0704348 14.1652174,18.4330435 C21.2817391,22.5730435 30.0782609,25.0669565 39.1721739,25.0669565 C45.7268921,25.0311652 52.2100278,23.7013821 58.2495652,21.153913 C59.1834783,20.7573913 59.9686957,21.7695652 59.0530435,22.4582609 M61.353913,19.8313043 C62.0634783,20.7365217 60.5713043,24.4721739 59.9008696,26.1391304 C59.6973913,26.6426087 60.1330435,26.846087 60.5895652,26.4652174 C63.5556522,23.9817391 64.3226087,18.78 63.72,18.0286957 C63.1173913,17.2773913 57.9286957,16.6408696 54.7617391,18.866087 C54.273913,19.2078261 54.3573913,19.68 54.9,19.6147826 C56.6817391,19.4008696 60.6521739,18.9234783 61.3591304,19.8313043" id="Shape" fill="#FF9900"></path>
        </g>
    </g>
</svg>

<svg xmlns="http://www.w3.org/2000/svg" viewBox="0 0 150 29" width="124" height="24" role="img">
    <title>Amazon Pay</title>
    <g fill="none" fill-rule="evenodd">
        <path fill="#232F3E" d="M11.66 16.63a.6.6 0 0 1-.7.07c-.98-.81-1.16-1.19-1.69-1.96-1.62 1.65-2.76 2.14-4.86 2.14-2.48 0-4.41-1.53-4.41-4.6a5 5 0 0 1 3.13-4.8c1.6-.71 3.83-.84 5.54-1.03v-.38c0-.7.06-1.53-.36-2.14-.36-.54-1.04-.77-1.65-.77-1.12 0-2.13.58-2.37 1.77a.62.62 0 0 1-.52.55L.93 5.17a.52.52 0 0 1-.43-.62C1.15 1.09 4.28.04 7.09.04c1.43 0 3.3.38 4.43 1.47 1.43 1.34 1.3 3.13 1.3 5.07v4.59c0 1.38.58 1.99 1.12 2.73.19.26.23.59 0 .78-.6.5-1.67 1.43-2.26 1.96h-.02ZM8.68 9.45c0 1.15.03 2.1-.55 3.13-.47.83-1.2 1.34-2.04 1.34-1.13 0-1.79-.86-1.79-2.14 0-2.5 2.25-2.97 4.38-2.97v.64Zm11.05 7.07h-2.95a.55.55 0 0 1-.52-.5V.89c.01-.3.26-.54.56-.54h2.75c.28.02.5.24.52.52v1.98h.06C20.86.93 22.2.05 24.03.05c1.81 0 3 .88 3.82 2.8a4.35 4.35 0 0 1 7.5-1.16c.93 1.27.74 3.13.74 4.74v9.54a.56.56 0 0 1-.57.55h-2.95a.55.55 0 0 1-.52-.54V7.96c0-.64.06-2.23-.08-2.84-.22-1.01-.88-1.3-1.73-1.3-.78.02-1.48.51-1.76 1.24-.3.77-.28 2.04-.28 2.9v8.01a.56.56 0 0 1-.57.55h-2.95a.55.55 0 0 1-.52-.54V7.96c0-1.7.26-4.18-1.83-4.18-2.08 0-2.03 2.42-2.03 4.18v8.01a.56.56 0 0 1-.57.55m32.83-2.63c-.54-.74-1.11-1.35-1.11-2.73v-4.6c0-1.94.14-3.72-1.3-5.07C49 .41 47.14.03 45.7.03c-2.8 0-5.94 1.04-6.6 4.5a.52.52 0 0 0 .45.63l2.85.3a.62.62 0 0 0 .53-.54c.24-1.19 1.24-1.77 2.37-1.77.6 0 1.3.23 1.65.77.41.6.36 1.44.36 2.14v.37c-1.71.2-3.95.32-5.54 1.02a5 5 0 0 0-3.15 4.82c0 3.06 1.94 4.59 4.42 4.59 2.08 0 3.24-.5 4.85-2.14.54.78.72 1.15 1.7 1.96.22.13.5.1.69-.07.59-.52 1.66-1.45 2.26-1.95.25-.18.21-.5.01-.77Zm-5.79-1.32c-.47.82-1.21 1.33-2.04 1.33-1.13 0-1.79-.86-1.79-2.13 0-2.51 2.25-2.97 4.38-2.97v.64c0 1.15.03 2.1-.55 3.13ZM55.06 3V.84a.52.52 0 0 1 .55-.55h9.68a.54.54 0 0 1 .56.55v1.85c0 .31-.26.72-.73 1.36l-5.02 7.16a10.7 10.7 0 0 1 5.53 1.2c.31.16.51.48.52.83v2.32c0 .32-.35.69-.71.5a11.15 11.15 0 0 0-10.24.01c-.33.18-.69-.18-.69-.5v-2.2a2.6 2.6 0 0 1 .36-1.48l5.82-8.35h-5.07a.54.54 0 0 1-.56-.55m19.15.12c-2.17 0-2.3 2.96-2.3 4.8 0 1.85-.03 5.8 2.28 5.8 2.3 0 2.4-3.19 2.4-5.13 0-1.27-.06-2.8-.45-4-.33-1.05-1-1.47-1.93-1.47ZM74.2.02c4.37 0 6.74 3.76 6.74 8.53 0 4.62-2.61 8.28-6.74 8.28-4.3 0-6.63-3.76-6.63-8.44S69.92.02 74.19.02Zm12.43 16.47h-2.94a.55.55 0 0 1-.52-.55V.81c.03-.28.28-.5.57-.5h2.73c.25.02.46.19.52.43v2.31h.06C87.87 1 89.03 0 91.06 0a3.9 3.9 0 0 1 3.45 1.78c.76 1.21.76 3.25.76 4.71v9.52a.56.56 0 0 1-.56.48h-2.96a.55.55 0 0 1-.53-.48V7.8c0-1.66.2-4.08-1.84-4.08-.76.04-1.42.51-1.7 1.21a6.74 6.74 0 0 0-.47 2.87v8.14a.56.56 0 0 1-.58.55M110.6 2.62a6.9 6.9 0 0 0-4.13 1.42v8.6a6.7 6.7 0 0 0 4.08 1.5c2.84 0 4.26-1.92 4.26-5.75 0-3.82-1.4-5.75-4.2-5.78Zm-4.35-.4a8.7 8.7 0 0 1 2.5-1.55 7.34 7.34 0 0 1 2.72-.52 5.67 5.67 0 0 1 4.73 2.14 7.48 7.48 0 0 1 1.28 2.58c.32 1.1.47 2.24.45 3.39.02 1.17-.15 2.33-.48 3.46a7.87 7.87 0 0 1-1.34 2.62 6.08 6.08 0 0 1-2.1 1.69c-.86.4-1.8.6-2.75.57a6.89 6.89 0 0 1-4.79-1.82v7.24a.55.55 0 0 1-.62.62h-1.82a.55.55 0 0 1-.62-.62V1.22a.55.55 0 0 1 .62-.61h1.36a.65.65 0 0 1 .7.62l.16.98Zm19.39 12.15a6.43 6.43 0 0 0 2.13-.4 8.09 8.09 0 0 0 2.13-1.18V9.64a15.62 15.62 0 0 0-3.27-.4c-2.33 0-3.5.9-3.5 2.69 0 .78.22 1.38.65 1.8.44.43 1.05.64 1.86.64ZM122.02 3.3l-.23.08a.82.82 0 0 1-.26.05c-.26 0-.4-.19-.4-.56v-.83c-.02-.2.02-.42.12-.6.14-.15.3-.26.5-.33.78-.32 1.6-.55 2.43-.68a16.3 16.3 0 0 1 2.9-.26c1.96 0 3.4.4 4.33 1.2.93.8 1.4 2.05 1.4 3.74v10.56a.55.55 0 0 1-.62.61h-1.33a.62.62 0 0 1-.68-.58l-.16-1.02a8.43 8.43 0 0 1-2.45 1.48c-.85.34-1.76.52-2.68.52a4.86 4.86 0 0 1-3.52-1.25 4.46 4.46 0 0 1-1.3-3.35c0-1.5.53-2.7 1.6-3.6A6.51 6.51 0 0 1 126 7.13c1.31.02 2.62.2 3.9.52V5.62c0-1.1-.25-1.9-.75-2.34-.5-.46-1.36-.68-2.6-.68-1.53.01-3.06.25-4.53.7Zm20.84 15.72a7.6 7.6 0 0 1-1.93 3.06c-.73.62-1.69.93-2.87.93a6.9 6.9 0 0 1-1.76-.22.9.9 0 0 1-.5-.3 1.04 1.04 0 0 1-.15-.63v-.8c0-.4.15-.59.46-.59.16.01.31.03.47.06.27.05.55.07.83.07.65.04 1.3-.16 1.82-.56a4.8 4.8 0 0 0 1.18-2.04l.58-1.57-5.95-14.71a2.35 2.35 0 0 1-.21-.74c0-.25.14-.37.43-.37h1.85c.24-.03.48.03.68.15.18.2.3.43.37.68l4.33 11.99 4.17-11.99c.07-.25.2-.49.37-.68.2-.12.44-.18.68-.15h1.73c.3 0 .43.12.43.37-.03.25-.1.5-.21.74l-6.8 17.3"/>
        <path fill="#F90" d="M59.05 22.45c-5.53 4.08-13.56 6.26-20.46 6.26a37.03 37.03 0 0 1-25-9.53c-.51-.47-.05-1.11.58-.75a50.3 50.3 0 0 0 25 6.64 49.79 49.79 0 0 0 19.08-3.92c.93-.4 1.72.62.8 1.3m2.3-2.62c.71.9-.78 4.64-1.45 6.3-.2.51.23.72.69.34 2.97-2.49 3.73-7.69 3.13-8.44-.6-.75-5.8-1.39-8.96.84-.49.34-.4.81.14.74 1.78-.2 5.75-.69 6.46.22"/>
    </g>
</svg>
